X:194
T:B194-  Hold fast thy sword and scepter, Charles
Q:1/4=120
L:1/4
M:C|
K:G
d|B3/2c/2Ad|G(A/4B/4c/2)Bg|e3/2d/2 (e/2f/2)g|B2e2|\
d3/2B/2 (c/2B/2) A/2G/2|cde3/2f/2|g(f/2e/2)e3/2d/2|\
d3||a|a3/2b/2 (a/2f/2) (e/2d/2)|gab3/2^d/2|\
e(e/2f/2)f3/2e/2|e3f|gdd3/2d/2|e(e/4f/4g/2)f3/2d/2|\
ed/2B/2A3/2G/2|G3|]
